X: 996
T: Allie Crocker's
R: reel
M: 4/4
K: Gmajor
|:G2GG G2G2|AGFG ABcd|BGGG G2G2|AGFG ABc2:|
d2dd d2d2|edcB ABc2|c2cc c2c2|dcBA GAB2|
G2G>G F2F>F|E2E>E D2D2|c2dc B2A2|BGcA F2G2||

